docs/img/logo.svg

<svg height="13.758334mm" viewBox="0 0 232.08145 48.750003" width="65.498543mm" xmlns="http://www.w3.org/2000/svg"><path d="m186.21484 0c-3.55502 0-6.91696.71098732-10.01953 2.0683594-3.1672 1.357372-5.88187 3.1670334-8.27343 5.5585937-2.32693 2.3269235-4.20123 5.0419669-5.5586 8.1445309-1.35737 3.167202-2.06836 6.528963-2.06836 10.083985 0 3.490385.71099 6.785923 2.06836 9.953125 1.35737 3.167201 3.23167 5.881877 5.5586 8.273437 2.39156 2.326924 5.10623 4.201222 8.27343 5.558594 3.10257 1.357372 6.46451 2.068359 10.01953 2.068359 3.55503 0 6.91502-.646534 10.01758-2.003906l-10.01758-6.65625c-2.39156 0-4.58964-.452691-6.72265-1.292969-2.06838-.904914-3.87841-2.134081-5.42969-3.75-1.61592-1.551282-2.84313-3.361311-3.74805-5.429687-.90491-2.133013-1.35742-4.329143-1.35742-6.720703 0-2.391561.45251-4.589643 1.35742-6.722657.90492-2.068376 2.13231-3.878405 3.6836-5.429687 1.55128-1.615919 3.36112-2.845085 5.49414-3.75 2.06837-.8402779 4.33109-1.2910156 6.72265-1.2910156 4.65385 0 8.7266 1.6154506 12.15235 4.9765626l6.13867-6.0117189c-2.39156-2.3915603-5.17087-4.2656748-8.27344-5.6230469-3.10256-1.357372-6.46255-2.0039062-10.01758-2.0039062zm30.20118 0-22.36329 22.298828-3.62109 3.621094 3.62109 3.554687 22.36329 22.234375h12.15234l-25.85547-25.853515 25.85547-25.855469zm-170.910161.1640625v1.421875 38.5878905l8.597657-8.660156v-29.9277345-1.421875zm61.816411.0078125-25.855473 51.710937h9.566406l4.396485-8.662109 4.265624-8.533203 7.626958-15.189453 7.5625 15.189453h9.69531zm7.30078 0v13.056641l42.98437 38.654296v-.066406-.064453-51.580078h-8.5957v30.960937zm-114.62305.11914062 8.5976562 8.66015628h17.2578128c2.326931 0 4.329204.840923 6.009765 2.5214841 1.745199 1.680562 2.585938 3.749241 2.585938 6.076172 0 2.391568-.905376 4.395611-2.585938 6.076172-1.680561 1.680561-3.682834 2.519531-6.009765 2.519531h-17.2578128-8.5976562v25.855469h8.5976562v-17.193359h17.2578128c4.718499 0 8.789268-1.679893 12.15039-5.041016 3.42576-3.361123 5.042969-7.498298 5.042969-12.216797s-1.681846-8.7910371-5.042969-12.2167968c-3.361122-3.3611227-7.431891-5.04101558-12.15039-5.04101558zm54.103516 42.92187538-8.597657 8.660156h34.451172v-8.660156zm65.175784.072265 4.26562 8.597656h9.63086l-4.33008-8.597656z" transform="scale(.9375)"/><g stroke="#000" stroke-width=".643584" transform="matrix(0 -1 1 0 -120.21041 -135.26722)"><path d="m-183.8797 348.4046s.20595.48912.23169.51487l3.16644 3.14069c.15446.15446.36041.23169.54061.23169h2.80603c.20595 0 .4119-.10297.54062-.23169l3.19218-3.19218c.15446-.15446.23169-.36041.23169-.54061v-1.85353c0-.20594-.10298-.41189-.23169-.54061l-3.06347-3.11495c-.15446-.15446-.36041-.23169-.54061-.23169h-2.83177c-.20595 0-.4119.10297-.54061.23169l-1.93076 1.93076v-4.24767l3.44962-3.44961-1.10697-1.08122-3.68131 3.6813c-.15446.15446-.23169.36041-.23169.54061v8.18641zm1.57035-1.54461 2.78029-2.80603h2.18819l2.62582 2.65157v1.28717l-2.7288 2.75455h-2.18819l-2.67731-2.70306z"/><path d="m-160.60042 336.20223h-10.70926v6.25564h6.56457l2.62583 2.62583v2.60008l-2.65157 2.67732h-6.4616v1.5446h6.74477c.20595 0 .43764-.10297.54062-.23169l3.11495-3.11495c.15446-.15446.23169-.36041.23169-.54061v-3.24367c0-.20595-.10298-.43764-.23169-.54061l-3.08921-3.08921c-.15446-.15446-.36041-.23169-.54061-.23169h-5.32889v-3.16644h9.1904z"/><path d="m-153.38503 341.7628c-.43764 0-.7723.36041-.7723.7723v3.16644c0 .4119.33466.7723.7723.7723.41189 0 .7723-.3604.7723-.7723v-3.16644c0-.41189-.36041-.7723-.7723-.7723zm-3.83577-1.31291 2.7288-2.70306h2.21394l2.7288 2.70306v7.31112l-2.65157 2.62583h-2.34265l-2.67732-2.67731zm-1.28717-.84953c-.12871.10297-.23169.33466-.23169.54061v7.87748c0 .1802.0772.38615.23169.54061l3.1407 3.14069c.10297.12872.33466.23169.54061.23169h2.93475c.15446 0 .38615-.0772.54061-.23169l3.08921-3.0892c.12871-.10298.23169-.33467.23169-.54062v-7.92896c0-.18021-.0772-.4119-.23169-.54061l-3.16644-3.16644c-.12872-.12872-.33467-.23169-.54061-.23169h-2.80603c-.18021 0-.4119.0772-.54062.23169z"/><path d="m-144.65078 340.93901v-.51487l2.67732-2.67731h3.88725l1.10697 1.10697v2.62582l-9.03594 9.16465c-.15446.15446-.23169.36041-.23169.54062 0 .1802.0772.38615.23169.54061.15446.15446.36041.23169.54061.23169h10.01419v-1.54461h-8.13492l7.90323-8.08342c.12871-.12872.23169-.33467.23169-.54062v-3.24366c0-.18021-.0772-.38615-.23169-.54062l-1.57035-1.57034c-.12872-.12872-.33466-.23169-.54061-.23169h-4.47935c-.18021 0-.38615.0772-.54061.23169l-3.11496 3.14069c-.12871.12872-.23169.33467-.23169.54061v.82379z"/></g></svg>

<?xml version="1.0" encoding="UTF-8" standalone="no"?>
<svg
   width="65.498543mm"
   height="13.758334mm"
   viewBox="0 0 232.08145 48.750003"
   id="svg2"
   version="1.1"
   inkscape:version="1.1 (c4e8f9e, 2021-05-24)"
   sodipodi:docname="logo.svg"
   inkscape:export-filename="/Users/jonathan/Documents/planck-6502/docs/img/logo_small.png"
   inkscape:export-xdpi="47.632729"
   inkscape:export-ydpi="47.632729"
   xmlns:inkscape="http://www.inkscape.org/namespaces/inkscape"
   xmlns:sodipodi="http://sodipodi.sourceforge.net/DTD/sodipodi-0.dtd"
   xmlns="http://www.w3.org/2000/svg"
   xmlns:svg="http://www.w3.org/2000/svg"
   xmlns:rdf="http://www.w3.org/1999/02/22-rdf-syntax-ns#"
   xmlns:cc="http://creativecommons.org/ns#"
   xmlns:dc="http://purl.org/dc/elements/1.1/">
  <defs
     id="defs4" />
  <sodipodi:namedview
     id="base"
     pagecolor="#ffffff"
     bordercolor="#666666"
     borderopacity="1.0"
     inkscape:pageopacity="0.0"
     inkscape:pageshadow="2"
     inkscape:zoom="1.1895209"
     inkscape:cx="232.86686"
     inkscape:cy="52.962499"
     inkscape:document-units="px"
     inkscape:current-layer="layer1"
     showgrid="false"
     inkscape:window-width="1389"
     inkscape:window-height="830"
     inkscape:window-x="0"
     inkscape:window-y="25"
     inkscape:window-maximized="0"
     showguides="true"
     inkscape:guide-bbox="true"
     inkscape:document-rotation="0"
     inkscape:pagecheckerboard="0"
     units="px"
     fit-margin-top="0"
     fit-margin-left="0"
     fit-margin-right="0"
     fit-margin-bottom="0">
    <sodipodi:guide
       position="-79.92827,-259.79696"
       orientation="0,1"
       id="guide3367" />
  </sodipodi:namedview>
  <metadata
     id="metadata7">
    <rdf:RDF>
      <cc:Work
         rdf:about="">
        <dc:format>image/svg+xml</dc:format>
        <dc:type
           rdf:resource="http://purl.org/dc/dcmitype/StillImage" />
      </cc:Work>
    </rdf:RDF>
  </metadata>
  <g
     inkscape:label="Layer 1"
     inkscape:groupmode="layer"
     id="layer1"
     transform="translate(-120.21041,-135.26722)">
    <path
       id="flowRoot4136"
       style="font-style:normal;font-variant:normal;font-weight:normal;font-stretch:normal;line-height:0.01%;font-family:Dosis;-inkscape-font-specification:'Dosis, Normal';text-align:start;letter-spacing:0px;word-spacing:0px;writing-mode:lr-tb;text-anchor:start;fill:#000000;fill-opacity:1;stroke:none;stroke-width:0.896761px;stroke-linecap:butt;stroke-linejoin:miter;stroke-opacity:1"
       d="M 186.21484 0 C 182.65982 0 179.29788 0.71098732 176.19531 2.0683594 C 173.02811 3.4257314 170.31344 5.2353928 167.92188 7.6269531 C 165.59495 9.9538766 163.72065 12.66892 162.36328 15.771484 C 161.00591 18.938686 160.29492 22.300447 160.29492 25.855469 C 160.29492 29.345854 161.00591 32.641392 162.36328 35.808594 C 163.72065 38.975795 165.59495 41.690471 167.92188 44.082031 C 170.31344 46.408955 173.02811 48.283253 176.19531 49.640625 C 179.29788 50.997997 182.65982 51.708984 186.21484 51.708984 C 189.76987 51.708984 193.12986 51.06245 196.23242 49.705078 L 186.21484 43.048828 C 183.82328 43.048828 181.6252 42.596137 179.49219 41.755859 C 177.42381 40.850945 175.61378 39.621778 174.0625 38.005859 C 172.44658 36.454577 171.21937 34.644548 170.31445 32.576172 C 169.40954 30.443159 168.95703 28.247029 168.95703 25.855469 C 168.95703 23.463908 169.40954 21.265826 170.31445 19.132812 C 171.21937 17.064436 172.44676 15.254407 173.99805 13.703125 C 175.54933 12.087206 177.35917 10.85804 179.49219 9.953125 C 181.56056 9.1128471 183.82328 8.6621094 186.21484 8.6621094 C 190.86869 8.6621094 194.94144 10.27756 198.36719 13.638672 L 204.50586 7.6269531 C 202.1143 5.2353928 199.33499 3.3612783 196.23242 2.0039062 C 193.12986 0.6465342 189.76987 0 186.21484 0 z M 216.41602 0 L 194.05273 22.298828 L 190.43164 25.919922 L 194.05273 29.474609 L 216.41602 51.708984 L 228.56836 51.708984 L 202.71289 25.855469 L 228.56836 0 L 216.41602 0 z M 45.505859 0.1640625 L 45.505859 1.5859375 L 45.505859 40.173828 L 54.103516 31.513672 L 54.103516 1.5859375 L 54.103516 0.1640625 L 45.505859 0.1640625 z M 107.32227 0.171875 L 81.466797 51.882812 L 91.033203 51.882812 L 95.429688 43.220703 L 99.695312 34.6875 L 107.32227 19.498047 L 114.88477 34.6875 L 124.58008 34.6875 L 107.32227 0.171875 z M 114.62305 0.171875 L 114.62305 13.228516 L 157.60742 51.882812 L 157.60742 51.816406 L 157.60742 51.751953 L 157.60742 0.171875 L 149.01172 0.171875 L 149.01172 31.132812 L 114.62305 0.171875 z M 0 0.29101562 L 8.5976562 8.9511719 L 25.855469 8.9511719 C 28.1824 8.9511719 30.184673 9.7920949 31.865234 11.472656 C 33.610433 13.153218 34.451172 15.221897 34.451172 17.548828 C 34.451172 19.940396 33.545796 21.944439 31.865234 23.625 C 30.184673 25.305561 28.1824 26.144531 25.855469 26.144531 L 8.5976562 26.144531 L 0 26.144531 L 0 52 L 8.5976562 52 L 8.5976562 34.806641 L 25.855469 34.806641 C 30.573968 34.806641 34.644737 33.126748 38.005859 29.765625 C 41.431619 26.404502 43.048828 22.267327 43.048828 17.548828 C 43.048828 12.830329 41.366982 8.7577909 38.005859 5.3320312 C 34.644737 1.9709085 30.573968 0.29101562 25.855469 0.29101562 L 0 0.29101562 z M 54.103516 43.212891 L 45.505859 51.873047 L 79.957031 51.873047 L 79.957031 43.212891 L 54.103516 43.212891 z M 119.2793 43.285156 L 123.54492 51.882812 L 133.17578 51.882812 L 128.8457 43.285156 L 119.2793 43.285156 z "
       transform="matrix(0.9375,0,0,0.9375,120.21041,135.26722)" />
    <g
       aria-label="6502"
       transform="rotate(-90)"
       id="text1214"
       style="font-size:25.7434px;line-height:1.25;stroke-width:0.643584;fill:#000000;fill-opacity:1;stroke:#000000;stroke-opacity:1">
      <path
         d="m -183.8797,348.4046 c 0,0 0.20595,0.48912 0.23169,0.51487 l 3.16644,3.14069 c 0.15446,0.15446 0.36041,0.23169 0.54061,0.23169 h 2.80603 c 0.20595,0 0.4119,-0.10297 0.54062,-0.23169 l 3.19218,-3.19218 c 0.15446,-0.15446 0.23169,-0.36041 0.23169,-0.54061 v -1.85353 c 0,-0.20594 -0.10298,-0.41189 -0.23169,-0.54061 l -3.06347,-3.11495 c -0.15446,-0.15446 -0.36041,-0.23169 -0.54061,-0.23169 h -2.83177 c -0.20595,0 -0.4119,0.10297 -0.54061,0.23169 l -1.93076,1.93076 v -4.24767 l 3.44962,-3.44961 -1.10697,-1.08122 -3.68131,3.6813 c -0.15446,0.15446 -0.23169,0.36041 -0.23169,0.54061 v 8.18641 z m 1.57035,-1.54461 2.78029,-2.80603 h 2.18819 l 2.62582,2.65157 v 1.28717 l -2.7288,2.75455 h -2.18819 l -2.67731,-2.70306 z"
         style="font-family:'3270 Condensed';-inkscape-font-specification:'3270 Condensed, Normal';fill:#000000;fill-opacity:1;stroke:#000000;stroke-opacity:1"
         id="path913" />
      <path
         d="m -160.60042,336.20223 h -10.70926 v 6.25564 h 6.56457 l 2.62583,2.62583 v 2.60008 l -2.65157,2.67732 h -6.4616 v 1.5446 h 6.74477 c 0.20595,0 0.43764,-0.10297 0.54062,-0.23169 l 3.11495,-3.11495 c 0.15446,-0.15446 0.23169,-0.36041 0.23169,-0.54061 v -3.24367 c 0,-0.20595 -0.10298,-0.43764 -0.23169,-0.54061 l -3.08921,-3.08921 c -0.15446,-0.15446 -0.36041,-0.23169 -0.54061,-0.23169 h -5.32889 v -3.16644 h 9.1904 z"
         style="font-family:'3270 Condensed';-inkscape-font-specification:'3270 Condensed, Normal';fill:#000000;fill-opacity:1;stroke:#000000;stroke-opacity:1"
         id="path915" />
      <path
         d="m -153.38503,341.7628 c -0.43764,0 -0.7723,0.36041 -0.7723,0.7723 v 3.16644 c 0,0.4119 0.33466,0.7723 0.7723,0.7723 0.41189,0 0.7723,-0.3604 0.7723,-0.7723 v -3.16644 c 0,-0.41189 -0.36041,-0.7723 -0.7723,-0.7723 z m -3.83577,-1.31291 2.7288,-2.70306 h 2.21394 l 2.7288,2.70306 v 7.31112 l -2.65157,2.62583 h -2.34265 l -2.67732,-2.67731 z m -1.28717,-0.84953 c -0.12871,0.10297 -0.23169,0.33466 -0.23169,0.54061 v 7.87748 c 0,0.1802 0.0772,0.38615 0.23169,0.54061 l 3.1407,3.14069 c 0.10297,0.12872 0.33466,0.23169 0.54061,0.23169 h 2.93475 c 0.15446,0 0.38615,-0.0772 0.54061,-0.23169 l 3.08921,-3.0892 c 0.12871,-0.10298 0.23169,-0.33467 0.23169,-0.54062 v -7.92896 c 0,-0.18021 -0.0772,-0.4119 -0.23169,-0.54061 l -3.16644,-3.16644 c -0.12872,-0.12872 -0.33467,-0.23169 -0.54061,-0.23169 h -2.80603 c -0.18021,0 -0.4119,0.0772 -0.54062,0.23169 z"
         style="font-family:'3270 Condensed';-inkscape-font-specification:'3270 Condensed, Normal';fill:#000000;fill-opacity:1;stroke:#000000;stroke-opacity:1"
         id="path917" />
      <path
         d="m -144.65078,340.93901 v -0.51487 l 2.67732,-2.67731 h 3.88725 l 1.10697,1.10697 v 2.62582 l -9.03594,9.16465 c -0.15446,0.15446 -0.23169,0.36041 -0.23169,0.54062 0,0.1802 0.0772,0.38615 0.23169,0.54061 0.15446,0.15446 0.36041,0.23169 0.54061,0.23169 h 10.01419 v -1.54461 h -8.13492 l 7.90323,-8.08342 c 0.12871,-0.12872 0.23169,-0.33467 0.23169,-0.54062 v -3.24366 c 0,-0.18021 -0.0772,-0.38615 -0.23169,-0.54062 l -1.57035,-1.57034 c -0.12872,-0.12872 -0.33466,-0.23169 -0.54061,-0.23169 h -4.47935 c -0.18021,0 -0.38615,0.0772 -0.54061,0.23169 l -3.11496,3.14069 c -0.12871,0.12872 -0.23169,0.33467 -0.23169,0.54061 v 0.82379 z"
         style="font-family:'3270 Condensed';-inkscape-font-specification:'3270 Condensed, Normal';fill:#000000;fill-opacity:1;stroke:#000000;stroke-opacity:1"
         id="path919" />
    </g>
  </g>
</svg>
